hosted/assets/icon/widgets/dark-mode/multi-switch.svg

<svg width="50" height="50" viewBox="0 0 50 50" fill="none" xmlns="http://www.w3.org/2000/svg">
<path d="M25 2C12.3086 2 2 12.3086 2 25C2 37.6914 12.3086 48 25 48C37.6914 48 48 37.6914 48 25C48 12.3086 37.6914 2 25 2ZM25 4C36.6094 4 46 13.3906 46 25C46 36.6094 36.6094 46 25 46C13.3906 46 4 36.6094 4 25C4 13.3906 13.3906 4 25 4Z" fill="white"/>
<path fill-rule="evenodd" clip-rule="evenodd" d="M25 10C16.7269 10 10 16.7898 10 25.1905C10 30.6767 12.8706 35.4801 17.171 38.1505L16.116 39.8495C11.2462 36.8257 8 31.3895 8 25.1905C8 15.7076 15.6 8 25 8C34.4 8 42 15.7076 42 25.1905C42 31.3895 38.7538 36.8257 33.884 39.8495L32.8289 38.1505C37.1294 35.4801 40 30.6767 40 25.1905C40 16.7898 33.2731 10 25 10Z" fill="white"/>
<circle cx="25" cy="25" r="3" fill="white"/>
<path d="M33 19L34.4241 21.4667L19.624 30.0115L17.1317 30.0115L18.1999 27.5448L33 19Z" fill="white"/>
<circle cx="25" cy="25" r="2" fill="#E75F63"/>
</svg>

<svg width="50" height="50" fill="none" xmlns="http://www.w3.org/2000/svg"><path d="M25 2C12.309 2 2 12.309 2 25s10.309 23 23 23 23-10.309 23-23S37.691 2 25 2zm0 2c11.61 0 21 9.39 21 21s-9.39 21-21 21S4 36.61 4 25 13.39 4 25 4z" fill="#fff"/><path fill-rule="evenodd" clip-rule="evenodd" d="M25 10c-8.273 0-15 6.79-15 15.19a15.22 15.22 0 007.171 12.96l-1.055 1.7A17.222 17.222 0 018 25.19C8 15.709 15.6 8 25 8s17 7.708 17 17.19a17.222 17.222 0 01-8.116 14.66l-1.055-1.7A15.222 15.222 0 0040 25.19C40 16.79 33.273 10 25 10z" fill="#fff"/><circle cx="25" cy="25" r="3" fill="#fff"/><path d="M33 19l1.424 2.467-14.8 8.545h-2.492l1.068-2.467L33 19z" fill="#fff"/><circle cx="25" cy="25" r="2" fill="#E75F63"/></svg>
